X:1
T:Piano Sonata
T:Piano Sonata
T:a Charles Louis, Duc de lucques, Infant d´Espagne
T:Sigismond Thalberg Op. 56
C:Sigismond Thalberg Op. 56
%%score { ( 1 3 5 ) | ( 2 4 ) }
L:1/8
Q:1/4=120
M:2/4
K:Eb
V:1 treble nm="Piano" snm="Pno."
V:3 treble 
V:5 treble 
V:2 bass 
V:4 bass 
V:1
"^Allegro moderato" (c/e/g/a/ g/e/c/d/) | (e/c/G/A/ G/E/C/D/) |[Q:1/4=100] (E2 DC) | (=B,AGF) | %4
"_poco ritard"[Q:1/4=90] (EDCB,) |[Q:1/4=80] =A,2 _A,2 |[Q:1/4=60]!p! G,4 | %7
[Q:1/4=80] z!p!"^a tempo" [Gce][DG=B][EGc] |!<(! [Fcd][Gce]!mf! [Gdf]2-!<)! | %9
!>(! [Gdf]2 [Gce]2!>)! |!pp! ([G-=B-e]4 | [GBd]2)[Q:1/4=20] z2 | %12
[Q:1/4=100]!p! (e3 d/c/)[Q:1/4=120] | c2 c>f |!<(! (!>!e3 !>!d/!>!c/) | (!>!c3 !>!_c)!<)! | %16
!f! B/d/f/g/ f/g/f/f'/ | b/d'/f'/g'/!8va(! f'/b'/=a'/_g''/ |!f! f''/b'/f'/b'/!8va)! f/b/=a/f'/ | %19
 d'/b/f/d/ B/F/[Q:1/4=100][DFA]/[DFG]/ |[Q:1/4=120] [DFG]3 [DFA] | %21
!f! !>![DFG]!>![DFGd]!>![EGe]!>![^Fce^f] | !>![Gceg]/ G,/[CE^F]/G/ [ce^f]/g/[c'e'^f']/g'/ | %23
 !>![ac'e'a']2 !>![=ac'e'f'=a']2 | z/[I:staff +1] F,/[B,C=E]/F/[I:staff -1] [Bc=e]/f/[bc'=e']/f'/ | %25
 !>![^fc'd'^f']2 !>![=fg=bd'g'] z |!ff! (!>![egc'e']3 !>![dgd']/!>![cgc']/) | %27
 !>![cgc']2 !>![cfac']>!>![faf'] | (!>![egc'e']3 !>![dgd']/!>![cgc']/) | %29
 !>![cgc']2 !>![cfac']>!>![_cfa_c'] | !>![Bfab]/d'/f'/g'/!ff!!8va(! f'/g'/f'/f''/ | %31
 f''/b'/f'/b'/!8va)! f/b/=a/_g'/ | f'/b/f/d/ F/B/=A/f/ | %33
 d/B/F/D/[I:staff +1] B,/F,/[D,^F,C]/[D,G,=B,]/ |[Q:1/4=110] !>![D,G,=B,]4 | %35
!mp!!p![Q:1/4=100][I:staff -1] z !>![DG=B]!>![=A,D^F]!>![=B,DG] | !>![C=A]!>![D=B] !>![=Ec]2- | %37
 !>![Ec]2 !>![D=B]2 | !>!^A4- | !>!A!>!=B!>!d!>!^c |[Q:1/4=110] !>!=B!>!^F !>!d2 | !>!d2 !>!c2 | %42
 !>!c4- | !>!c[Q:1/4=120]!>!e"_cresc."!>!=B!>!c | !>!d!>!e !>!f2- | !>!f!>!f!>!c!>!d | %46
 !>!=e!>!f!f! !>!g2- | !>!g!>!g!>!=a!>!b | %48
!ff![Q:1/4=20]!8va(! !>![b=e'g'b'][Q:1/4=116]!p! (b'/c''/ b'/)g'/e'/f'/!8va)! | %49
 (g'/=e'/)g/=a/ (b/g/=e/f/) |[Q:1/4=110] !>!g4- | g!>!g!>!G!>!=A | !>!B!>!c !>!d2- | %53
 d2 !>!T^f2{=ef} |[Q:1/4=100] !>!g4- | g!>!B!>!B,!>!C |[Q:1/4=90] !>!D!>!E[Q:1/4=80] !>!F2- | %57
 F!>!G[Q:1/4=40] !>!T=A2{GA} |[Q:1/4=60]!p! !>!B[Q:1/4=100][I:staff +1] [F,D][C,=A,][D,B,] | %59
 [E,C][F,D] [G,E]2- | [G,E][G,E][D,B,][E,C] | [F,D][G,E] [=A,F]2- | %62
 [F,A,F]!mp![I:staff -1] !>![FBf] !>![^CB^c]!>![DBd] | !>!e!>!f !>!g2- | g!mf!!>!g!>!f!>!=e | %65
 !>!f!>!g !>!a2- | a!>!g!>!a!>!=a | !>!b!>!=b !>!c'2- | %68
"_cresc." [cec'] !>![_g_g']!>![dd']!>![ee'] |!f!"_dim." !>![gg'][Q:1/4=90] [eg-]2 [=eg]- | %70
 [eg][ca][_ef][db] |[Q:1/4=80] [eg] [EG-]2 [=EG]- | %72
[Q:1/4=70] [EG][CA][Q:1/4=60][_EF][Q:1/4=40][DB] |!p![Q:1/4=80] [G,B,E]2 [G,B,E]2 | %74
{/F} (3[G,B,E][F,B,D][G,B,E] [A,B,F]>[F,B,D] | [G,B,E]2 [B,DF]2 | [B,G]4 | [B,DG]2 [B,DG]2 | %78
{G=A} (3[B,DG][=A,D^F][B,DG] [CDA]>[A,DF] | [B,DG]2 [B,DF]2 | [G,B,E]4 | [B,DF]2 [B,_DF]2 | %82
"_cresc." [=A,CF]2{/G} (3F=EF | [FA]2 [_FA]2 | A2{/B} (3AGA | c2 ^c2 | %86
!f! [FBd]2!>(! (3[Ec][DB][B,G]!>)! | %87
!mf![I:staff +1] (3:2:2[=A,CF]2 [G,B,E] (3:2:2[E,G,C]2 [F,A,D] | %88
!<(! (3[D,F,B,][=E,G,C][F,A,_D] (3[^F,=A,=D][G,B,E][^G,=B,=E]!<)! | %89
!f! (3[=A,CF]!>(![B,_D_G][=B,=D=G] (3[_B,_D_G][A,CF][_A,_C_F]!>)! | %90
!p! [G,B,E]2[I:staff -1] [G,B,E]2 |{/F} (3[G,B,E][F,B,D][G,B,E] [A,B,F]>[F,B,D] | %92
 [G,B,E]2 [B,DF]2 | [B,G]4 | [B,DG]2 [B,DG]2 |{G=A} (3[B,DG][=A,D^F][B,DG] [CDA]>[A,DF] | %96
 [B,DG]2 [B,DF]2 | [G,B,E]2[Q:1/4=90] (3z .b.B | (3z .b.B (3z .b.B | (3z .b.B (3z .b.B | %100
{/!>!f} (3!>![GBe]!>![FBd]!>![GBe] (3z .b.B | (3z .b.B (3z .b.B | (3z .b.B (3z .b.B | %103
 (3z .d'.d (3z .d'.d |{g=a} (3!>![Bdg]!>![=Ad^f]!>![Bdg] (3z .d'.d | (3z .b.B (3z .b.B | %106
 (3z .b.B (3z .b.B | (3z .b.B (3z .b.B | (3z .=a.=A{/!>!g} (3!>!f!>!=e!>!f | %109
"_cresc." (3z ._d'._d (3z .d'.d | (3z .c'.c{/!>!b} (3!>!a!>!g!>!a | (3z .a.e (3z .b.=e | %112
!f! (3z bf!>(! (3!>![ec']!>![db]!>![Bg]!>)! |!mf! (3fce!mp! (3cG!p!d | %114
!<(! (3[DFB][=EGc][FA_d] (3[^F=A=d][GBe][^G=B=e]!<)! | %115
!f! (3[=Acf]!>(![B_d_g][=B=d=g] (3[_B_d_g][Acf][_A_c_f]!>)! |!p! (3z .b.B (3z .b.B | %117
{/!>!f} (3!>![Ae]!>!d!>!e (3f[FA]d | (3e[EG]c (3f[FB]d |!>(! (3.g.d.=B (3.G.D.=B,!>)! | %120
[K:bass]!p! (3!>!.G,.=B,,.D, (3!>!.G,.B,,.F, | (3G,.C,.E, (3A,.E,.G, | (3C.E,.A, (3._C.D,.F, | %123
(3x.D,.F, (3z .E,.G, | (3E.E,.G, (3.E.E,.=B, | C2 (3C.D.C |!pp![Q:1/4=100] !>!G4 | !>!G4 | %128
!p! !>!G2 !>!A>!>!G | !>!G4 |[Q:1/4=120] !>!G2 !>!A>!>!G | !>!G2 !>!A>!>!G | %132
[Q:1/4=140][I:staff +1] =B,,/E,/F,/G,/ F,/A,/=B,/C/ |[Q:1/4=150] =B,/E/F/G/[I:staff -1] F/A/=B/c/ | %134
[Q:1/4=160] =B/e/f/g/ f/a/=b/c'/ | =b/e'/f'/g'/!8va(! f'/a'/=b'/c''/ |1 %136
 =b'/d''/f''/g''/ f''/d''/b'/c''/ | =b'/a'/f'/g'/ f'/d'/=b/c'/!8va)! | %138
[Q:1/4=140] =b/a/f/g/ f/d/=B/c/ |[Q:1/4=120] =B/A/^F/G/ A/=A/_B/=B/ :|2 %140
!f![Q:1/4=150]!8va(! =b'/!>(!g''/f''/d''/ b'/c''/b'/a'/!8va)! | %141
[Q:1/4=140] f'/g'/f'/d'/ =b/c'/b/a/ |[Q:1/4=130] f/g/f/d/ =B/c/B/A/ | %143
[Q:1/4=120] F/G/F/D/!>)!!p! =B,/G/F/D/ |][Q:1/4=130] =B,/G/F/D/ B,/G/F/D/ | =B,/G/F/D/ B,/G/F/D/ | %146
!pp![Q:1/4=92] =B,/G/^F/D/ B,/G/F/D/ |!p![Q:1/4=116] =B, !>!d!>!^A!>!=B | !>!c !>!=e!>!=B!>!c | %149
 !>!^d !>!^f!>!^^c!>!d | !>!^f !>!=e2[Q:1/4=124] !>!d- | !>!d !>!c2 !>!=B- | !>!B !>!=A2 !>!=B- | %153
 !>!B!>!c!>!=A!>!d | [DG=B]2 z2 |[Q:1/4=132] z !>![=Bd-=b]!>![^Fd-^f]!>![Gdg] | %156
 !>![Aa]"_cresc." !>![ce-c']!>![Ge-g]!>![Aea] | !>![=B=b] !>![df-d']!>![^Af-^a]!>![Bfb] | %158
!f![Q:1/4=124] !>![dd'] !>![cc']2 !>![Bb]- |"_dim." !>![Bb] !>![Aa]2 !>![Gg]- | %160
 !>![Gg] !>![Ff]2 !>![Aa]- |!p! !>![Aa] !>![Ff]2 !>![Bb] |!8va(! d'/_g'/e'/b'/ =a/e'/b/g'/!8va)! | %163
 f/b/_g/d'/ d/g/e/b/ | _f/b/_g/_c'/ a/_f'/c'/a'/ | b/_f'/_c'/a'/ =a/e'/b/_g'/ | %166
!<(! ^g/c'/=a/f'/ =e/a/f/c'/ | =B/f/c/=a/ =e/a/f/c'/!<)! |!f! b/[_d'f']/f/_d/ c/[e_g]/B/_G/ | %169
 F/[B_d]/_D/B,/ =A,/[CE]/_G,/F,/ |!f! z4 | z [_D_d][=A,=A][B,B] | [_C_c][_D_d] !>![Ee]2- | %173
 !>![Ee]2 !>![_D_d]2 | !>![Cc]4 | !>![Cc]2 !>![Cc]2 | !>![Ff]!>![Aa]!>![=E=e]!>![Ff] | %177
 !>![Gg]!>![_d_d']!>![cc']!>![=e=e'] | !>![ff']!>![aa']!>![=e=e']!>![ff'] | %179
!8va(! !>![gg']!>![_d'_d'']!>![c'c'']!>![bb'] |!f! !>![=a=a']4- | %181
!>(! !>![aa']!>![gg']!>![^f^f']!>![=e=e']!8va)!!>)! | %182
!p! !>![^d^d']!mp!!>![=d=d']!>![cc']!>![=B=b] | %183
!mf! !>![cc']{/!>!e'}!>![_d_d']/>!>![cc']/ !>![cc']>!>![Bb] |!f! !>![=A=a]4- | %185
[Q:1/4=120]!>(! !>![Aa]!>![Gg]!>![^F^f]!>![=E=e]!>)! | %186
!p![Q:1/4=100] !>![^D^d]!mp!!>![=D=d]!>![Cc]!>![=B,=B] |!p![Q:1/4=80] !>![Cc]!>![Ff]!>![=E=e]!>!G | %188
[Q:1/4=108]!p! (A3 G/F/) | F2 F>B |[Q:1/4=116] (A3 G/F/) | F fAB |[Q:1/4=108] (c3 _d/e/) | %193
[Q:1/4=92] efe_d |!pp![Q:1/4=108] c/e/a/b/ a/c'/e'/f'/ | %195
!8va(! e'/a'/_d''/c''/ _c''/a'/f'/d'/!8va)! | e'/f'/e'/c'/ a/f/e/c/ | A/B/A/E/ C/E/B/A/ | %198
 F/A/_d/e/ d/f/e/a/ | =b/d'/f'/a'/!8va(! =b'/^c''/d''/=e''/ | %200
 ^f''/g''/f''/d''/ =b'/!8va)!g'/^f'/d'/ | =b/g/^f/d/ ^c/f/^F/c/ | G/B/^f/g/ f/=b/=e'/d'/ | %203
 =b/^f/d/=B/ ^A/G/^F/B/ | ^c/g/^f/d/ c/=e/g/^c'/ | =e'/=a'/=a/a/ [=Ad]/a/[A^c]/a/ | %206
 [=A^c]/=a/[A=e]/a/ d/A/d/f/ | =a/d'/=a'/a/ [=A^c]/a/[Ac]/a/ | =e/B/=A/d/ e/g/b/=e'/ | %209
!8va(! g'/c''/c'/c''/!8va)! [cf]/c'/[c=e]/c'/ |!mp![Q:1/4=116]!<(! [cf] z z x | %211
 z !>!=a!>!=e!>!f!<)! |!f!!>(! !>!g2- !>!g>!>!=a!>)! |!p! !>!b2 !>!=a>!>!g |!mp!!<(! [=Af] z z x | %215
 z !>!=a!>!=e!>!f!<)! |!f!!>(! !>!g2- !>!g>!>!a!>)! |!p! !>!b2 !>!c'>!>!g |!mp!!<(! [ca] z z x | %219
 z !>!c'!>!g!>!a!<)! |!f!!>(! !>!g!>!f !>!e2-!>)! |!p! [ce]!>![C^Fe]!>![CFd]!>![CFc] | %222
!pp![Q:1/4=100] !>![DG=B]2 z2 |[Q:1/4=105] z z/!p! [fd']/ [af']/[fd']/[d=b]/[ca]/ | [ca]2 [=Bg] z | %225
[Q:1/4=110] z/!8va(! [=ba']/"_cresc."[d'=b']/[ba']/!8va)! [af']/[fd']/[db]/[ca]/ | %226
[Q:1/4=115] !>![ca]2 !>![=Bg] z | %227
[Q:1/4=120] z/!8va(! [=ba']/[d'=b']/[ba']/!8va)! [af']/[fd']/[db]/[ca]/ | %228
[Q:1/4=115] !>![ca]2 !>![=Bg] z/ !>![ca]/ |[Q:1/4=110] !>![ca]2 !>![=Bg] z/ !>![ca]/ | %230
[Q:1/4=100] !>!.[ca]/!>!.[=Bg]/!>!.[^A^f]/!>!.[Bg]/ !>!.[ca]/!>!.[^c=a]/!>!.[db]/!>!.[^d=b]/ | %231
[Q:1/4=80] !>!.[=ec']/!>!.[f^c']/!>!.[^fd']/!>!.[ge']/ !>!.[a=e']/!>!.[=af']/!>!.[b^f']/[Q:1/4=40]!>!.[=bg']/ | %232
!ff![Q:1/4=120] (!>![egc'e']3 !>![dgd']/!>![cgc']/) | !>![cgc']2 !>![cfac']>!>![faf'] | %234
 (!>![egc'e']3 !>![dgd']/!>![cgc']/) | !>![cgc']2 !>![cfac']>!>![_cfa_c'] | %236
 !>![Bfab]/d'/f'/g'/!ff!!8va(! f'/g'/f'/f''/ | f''/b'/f'/b'/!8va)! f/b/=a/_g'/ | %238
 f'/b/f/d/ F/B/=A/f/ | d/B/F/D/[I:staff +1] B,/F,/[E,C]/[D,B,]/ |[Q:1/4=110] !>![D,B,]4 | %241
!mp!!p![Q:1/4=100][I:staff -1] z[I:staff +1] !>![E,D]!>![C,=A,]!>![D,B,] | %242
 !>![E,C]!>![F,D] !>![G,E]2- | !>![G,E]2 !>![F,D]2 |[I:staff -1] !>!^C4- | !>!C!>!D!>!F!>!=E | %246
[Q:1/4=110] !>!D!>!=A, !>!F2 | !>!F2 !>!=E2 | !>!^D4- | %249
 !>!D[K:treble][Q:1/4=120] !>!=E"_cresc."!>!G!>!B | !>!B2 !>!=A2- | !>!A !>!f!>!^c!>!d | %252
 !>![=E=e]!>![Ff] !>![Gg-]2 | !>!g !>![^c=e^c']!>![eg=e']!>![ge'g'] | %254
!f![Q:1/4=40] !>![g=e'g']!p![Q:1/4=116] (g'/=a'/ g'/)e'/^c'/d'/ | (=e'/^c'/)=e/^f/ (g/e/^c/d/) | %256
 !>!=e4- | e!>!=e!>!=E!>!^F | !>!G!>!=A !>!=B2- | B2 !>!Te2{^ce} |[Q:1/4=100] !>!=e4- | %261
 e !>!G!>!G,!>!=A, |[Q:1/4=90] !>!=B,!>!C !>!D2 | D!>!=E !>!T^F2{EF} | %264
[Q:1/4=60]!p! !>!G[Q:1/4=100] [D=B][=A,^F][=B,G] | [C=A][D=B] [=Ec]2- | [Ec][=Ec][=B,G][C=A] | %267
 [D=B][=Ec] [^Fd]2- | [DFd]!mp! !>![DGd] !>![B,GB]!>![=B,G=B] | !>!c!>!d !>!=e2- | %270
 e!mf!!>!=e!>!d!>!^c | !>!d!>!=e !>!f2- | f!>!=e!>!f!>!^f | !>!g!>!a !>!=a2- | %274
"_cresc." [Aca] !>![ee']!>![=B=b]!>![cc'] |!f!"_dim." !>![=e=e'][Q:1/4=90] [ce-]2 [^ce]- | %276
 [ce][=Af][=cd][=Bg] |[Q:1/4=80] [c=e] [C=E-]2 [^CE]- | %278
[Q:1/4=70] [CE][=A,F][Q:1/4=60][=CD][Q:1/4=40][=B,G] | %279
!p![Q:1/4=80][I:staff +1] [=E,G,C]2 [E,G,C]2 |{/D} (3[=E,G,C][D,G,=B,][E,G,C] [F,G,D]>[D,G,B,] | %281
!pp![I:staff -1] (c/=e/g/=a/ g/f/d/f/) | (=e/f/e/c/ G/=E/C/D/) | %283
!p![I:staff +1] [G,=B,=E]2 [G,B,E]2 |{=E^F} (3[G,=B,E][^F,B,_E][G,B,=E] [=A,B,F]>[F,B,_E] | %285
!pp![I:staff -1] (=e/g/=b/c'/ b/g/f/d/) | (c/d/c/G/ =E/C/G,/=A,/) | %287
!p![I:staff +1] [G,=B,D]2 [G,_B,D]2 |[I:staff -1] (d/^f/=a/=b/ a/f/d/=A/) | %289
!mp![I:staff +1] [B,DF]2 [B,_DF]2 |[I:staff -1] (f/=a/c'/d'/ c'/a/f/c/) | %291
!f!!<(! [CF=A]2 [^CG^A]2!<)! |!ff! [DG=B]2!>(! (3[CD=A][=B,DG][G,=E]!>)! | %293
!mp![I:staff +1] (3:2:2[^F,=A,D]2!p! [=E,G,C] (3:2:2[C,E,A,]2 [D,F,=B,] | %294
!<(! (3[=B,,D,G,][^C,=E,=A,][D,F,B,] (3[_E,^F,=B,][=E,G,C][=F,_A,^C]!<)! | %295
!f! (3[^F,=A,D]!>(![G,B,E][_A,=B,=E] (3[G,_B,_E][F,=A,D][=F,_A,^C]!>)! | %296
[Q:1/4=90][I:staff -1] (3z .g.G (3z .g.G |{/!>!d} (3!>![=EGc]!>![DG=B]!>![EGc] (3z .g.G | %298
 (3z .g.G (3z .g.G | (3z .g.G (3z .g.G | (3z .=b.=B (3z .b.B | %301
{=e^f} (3!>![G=Be]!>![^FB_e]!>![GB=e] (3z .=b.B | (3z .g.G (3z .g.G | (3z .g.G (3z .g.G | %304
 (3z .g.G (3z .g.G | (3z .^f.^F!<(!{/!>!=e} (3!>![=F=Ad]!>![FA^c]!>![FAd] | (3z .b.B (3z .b.B | %307
 (3z .=a.=A{/!>!g} (3!>![_Acf]!>![Ac=e]!>![Acf] | (3z .f.c (3z .g.^c!<)! | %309
!f! (3z gd!>(! (3!>![cd=a]!>![=Bdg]!>![G=e]!>)! |!mf! (3d=Ac!mp! (3A=E!p!=B | %311
!<(! (3.[=B,DG].[^C=E=A].[DFB] (3.[_E^F=B].[=EGc].[=F_A^c]!<)! | %312
!f! (3.[^F=Ad]!>(!.[GBe].[_A=B=e] (3.[G_B_e].[F=Ad].[=F_A^c]!>)! |!p! (3z .g.G (3z .g.G | %314
{/!>!d} (3!>![Fc]!>!=B!>!c (3d[DF]B | (3c[C=E]=A (3d[DG]=B |!>(! (3=e=BA (3=E=B,A,!>)! | %317
[K:bass]!p! (3!>!=E,A,,=B,, (3!>!E,A,,D, | (3[=A,,C,][A,,C,][A,,C,]!<(! (3F,C,=E, | %319
 (3=A,C,F, (3=B,=B,,D,!<)! |!mp! (3=A,C,A, (3_A,C,A, | %321
!<(! (3[=E,G,]C,!f![E,G,]!<)!!>(! (3[E,G,]C,[E,G,]!>)! | %322
!mf! (3F,F,F,[Q:1/4=60] (3^F,D,[Q:1/4=20]F, |[K:treble]!pp![Q:1/4=100] !>!E2 !>!^F2 | !>!G4 | %325
 !>!E2 !>!^F2 | !>!G4 |[Q:1/4=110] !>!B3 !>!=A/!>!G/ | !>!B,3 !>!=A,/!>!G,/ | !>!B3 !>!=A/!>!G/ | %330
"_cresc." !>!B,3 !>!=A,/!>!G,/ |!mp![Q:1/4=120] !>!f3 !>!e/!>!d/ |"_cresc." !>!F3 !>!E/!>!D/ | %333
!mf!"_cresc." !>!f3 !>!e/!>!d/ |!f! !>!F3 !>!E/!>!D/ |!ff! (!>![ege']3 !>![dgd']/!>![cgc']/) | %336
 !>![cgc']2 !>![cfac']>!>![faf'] | (!>![ege']3 !>![dgd']/!>![cgc']/) | %338
 !>![cgc']2 !>![cfac']>!>![faf'] | (!>![=egb=e']3 !>![dgbd']/!>![^cgb^c']/) | %340
 !>![^cgb^c']2 !>![cfbc']>!>![gg'] | (!>![fa=bf']3 !>![eabe']/!>![dabd']/) | %342
 !>![da=bd']2 !>![dabd']>!>![aa'] |!mp![Q:1/4=130]!8va(! [gd'f'g']>[ff'][d'd'']>[aa'] | %344
!mf![Q:1/4=140] [gd'f'g']>[ff'][d'd'']>[aa'] |[Q:1/4=150]"_cresc." [gd'f'g']>[ff'][d'd'']>[aa'] | %346
[Q:1/4=145] [gd'f'g']>!f![ff'][Q:1/4=135][d'd'']>[Q:1/4=40]!>![aa'] | %347
!ff![Q:1/4=126] (!>![e'g'e'']3 !>![d'g'd'']/!>![c'g'c'']/) | !>![c'g'c'']4 | %349
 (!>![b_d'b']3 !>![ac'a']/!>![gbg']/) | !>![gbg']4!8va)! | %351
"_dim." (!>![_g=a_g']3 !>![faf']/!>![eae']/) | !>![e=ae']4 | (!>![Afa]3 !>![Geg]/!>![Fdf]/) | %354
 !>![Fdf]4 |!p![Q:1/4=135] !>![EGe]2 !>![DFd]>!>![EGe] |!mp! !>![FGf]2 !>![Gcg]2 | %357
!mf!"_cresc." !>![Aca]2 !>![GBg]>!>![Aca] |!f! !>![=Ace=a]2"_dim." !>![Gdfg]2 | %359
!p! !>![ege']2 !>![dfd']>!>![ege'] |!mp! !>![fgf']2 !>![gc'g']2 | %361
!mf!"_cresc."!8va(! !>![ac'a']2 !>![gbg']>!>![ac'a'] |!f! !>![=ac'e'=a']2 !>![gd'f'g']2 | %363
!ff! g'/b'/=e''/_d''/ b'/g'/!8va)!_d'/b/ | g/b/g'/_d'/ b/g/_d/B/ | %365
!8va(! =a'/c''/^f''/e''/ c''/a'/e'/c'/ | e'/c''/^f'/e'/!8va)! c'/^f/e/c/ | %367
!ff![Q:1/4=132] (!>![ege']3 !>![dgd']/!>![cgc']/) | %368
[Q:1/4=116] !>![cgc']!>![cac']!>![c=ac']!>![cac'] | %369
[Q:1/4=132]!8va(! (!>![c'=a'c'']3 !>![=bg'=b']/!>![=a^f'a']/) | !>![=a^f'=a']4 | %371
 !>![^f'^d''^f'']2!8va)! !>![^f^d'f']2 | !>![^fc'd'^f']2 !>![=fg=bd'g']2 | %373
[Q:1/4=150]!ff! !>![ege']/[I:staff +1] E,/G,/A,/ G,/C/E/F/ |[I:staff -1] E/G/c/d/ c/e/g/a/ | %375
 g/c'/e'/f'/!8va(! e'/g'/c''/d''/ |[Q:1/4=126] (!>![e'g'e'']3 !>![d'g'd'']/!>![c'g'c'']/) | %377
[Q:1/4=40] !>![c'g'c'']2 z2!8va)! |[Q:1/4=40] !>![cgc']2 z2 |[I:staff +1] !fermata![G,CE]4 |] %380
V:2
 (C/E/G/A/ G/E/C/D/) | (E/C/G,/A,/ G,/E,/C,/D,/) | (E,2 D,C,) | (=B,,A,G,F,) | (E,D,C,B,,) | %5
 =A,,2 _A,,2 | G,,4- |!ped! [G,,,G,,]4 | z4 | z G,,3- | G,,4- | G,,3 z!ped-up! | %12
!pp!!ped! ([C,,C,]/ E/G/A/ G/E/C/D/) | (E/C/F,/G,/ A,/G,/F,/A,/)!ped-up! | %14
!ped! ([C,C]/E/G/A/ G/E/C/D/) | (E/C/F,/G,/ A,/G,/F,/E,/)!ped-up! | %16
!mf!!ped! !arpeggio!!>![B,,A,B,F]3 !>![C,F,E]/!>![B,,F,D]/!ped-up! | %17
!ped! !>![B,,F,D]3 !>![E,=A,C_G]!ped-up! |!ped! !>![D,B,F]3 !>![C,F,E]/!>![B,,F,D]/!ped-up! | %19
!ped! !>![B,,F,D]3 C,/=B,,/!ped-up! |!ped! (=B,,/D,/G,/A,/ G,/D,/C,/D,/)!ped-up! | %21
!ped! D,/G,,/=A,,/=B,,/ C,[_A,,A,]!ped-up! |!ped! !>![G,,G,]4 | !>![_G,,_G,]2 !>![F,,F,]2!ped-up! | %24
!ped! !>![B,,,B,,]4 | !>![_F,,_F,]2 !>![E,,E,] z!ped-up! | %26
!f!!ped! (!>![C,,,C,,]/ E/G/A/ G/E/C/D/) | (E/C/F,/G,/ A,/G,/F,/A,/)!ped-up! | %28
!ped! (!>![C,,C,]/ E/G/A/ G/E/C/D/) | (E/C/F,/G,/ A,/G,/F,/E,/)!ped-up! | %30
!ped! !>![D,A,B,F]3 !>![C,F,E]/!>![B,,F,D]/!ped-up! |!ped! !>![B,,F,D]3 !>![E,=A,C_G]!ped-up! | %32
!ped! !>![D,B,F]3 !>![C,F,E]/!>![B,,F,D]/!ped-up! |!ped! !>![B,,F,D]3 A,,/G,,/!ped-up! | %34
!ped! G,,/(=B,,/D,/=E,/) (D,/B,,/)D,,/^F,,/!ped-up! | G,,4- | %36
!p!!ped! G,,/(C,/G,/=A,/) (G,/C,/)=E,,/^F,,/!ped-up! | G,,4 | %38
!ped! (=E,,/G,,/B,,/C,/ B,,/G,,/^C,,/D,,/)!ped-up! | =E,,3 ^E,, | %40
!ped! (^F,,/=B,,/D,/=E,/ D,/_B,,/D,,/=E,,/)!ped-up! | ^F,,2 [F,,^F,]2 | %42
!ped! (^F,,/=A,,/C,/D,/ C,/A,,/=E,,/=F,,/) | ^F,,G,,"_cresc."G,G,,!ped-up! | %44
!ped! ([G,,,G,,]/C/G,/E,/ D,/C,/A,,/F,,/) | D,,/C,,/A,,,/C,,/ G,,,/C,,/G,,,/=B,,,/!ped-up! | %46
!ped! ([G,,,G,,]/B,/^C/D/!mf! C/B,/A,/=E,/) | ^C,/B,,/G,,/=E,,/ ^C,,/B,,,/G,,,/=E,,,/ | %48
!f! [^C,,,^C,,]!ped-up!!pp!!ped-up!!ped! [^C,G,B,=E][C,G,B,E][C,G,B,E] | %49
 [^C,G,B,=E][C,G,B,E][C,G,B,E][C,G,B,E] |!ped! ^C/=E/G/=A/ G/E/C/D/!ped-up! | %51
 =E/^C/G,/=A,/ B,/G,/C,/^C,/ |x[B,D][B,D][B,D] | [B,D][B,D][=A,D][A,D] | %54
!ped! [G,,G,]/B,/D/E/ D/B,/G,/=A,/!ped-up! | B,/G,/B,,/C,/ D,/B,,/G,,/=A,,/ | B,,C, D,2- | %57
 D,^C, =C,F, | [B,,F,] [B,,,B,,]2 [=A,,,=A,,] | [G,,,G,,][F,,,F,,][E,,,E,,][D,,,D,,] | %60
 [C,,,C,,]C,,C,[B,,,B,,] | [=A,,,=A,,][G,,,G,,][F,,,F,,][E,,,E,,] | %62
 [D,,,D,,] [D,D][=A,,=A,][B,,B,] | !>!C!>!D !>!E2- | E!>!E!>!D!>!^C | !>!D!>!E !>!F2- | %66
 F!>!E!>!F!>!^F | !>!G!>!G !>!A2 | E[K:treble] !>!E!>!F!>!_G | !>![B,EB] [EG-]2 [=EG]- | %70
 [EG][K:bass] F3 | [E,B,E] [E,G,-]2 [=E,G,]- | [E,G,] F,3 | E,,2 B,,2 | B,,,2 B,,2 | B,,4 | %76
 B,,2 E,2 | D,2 D,,2 | D,2 D,,>D,, | G,,2 B,,2 | E,4 | B,,,2 B,,2 | F,2 F,,2 | _D,,2 B,,2 | %84
 A,2 A,,2 | A,2 G,2 | F,2 F,,2 | F,,,2 F,,2 | B,,, z B,,2- | B,,4 | E,,2 B,,2 | B,,,2 B,,2 | B,,4 | %93
 B,,2 E,2 | D,2 D,,2 | D,2 D,,>D,, | G,,2 B,,2 | z4 | .B, z .B, z | [E,,E,]2 [G,B,E]2 | %100
 [B,,,B,,]2 [A,B,D]2 | [E,,E,]2 !arpeggio![B,,F,D]2 | E2 ^C2 | !arpeggio![B,,G,D]2 [D,,D,]2 | %104
 [D,G,D]2 [D,^F,CD]2 | !arpeggio![G,,D,B,]2 !arpeggio![B,,A,D]2 | [G,B,E]2 [B,EG]2 | %107
!ped! [B,,-F,-B,-D]2 [B,,F,B,_D]2!ped-up! | [F,=A,C]2 F,, z | %109
!ped! [_D,-A,-_D-F]2!ped-up! [D,A,D_F]2 | [A,CE]2 A,, z |!ped! [A,CE]2!ped-up! [G,B,^C=E]2 | %112
!ped! [F,B,DF]2 F,, z!ped-up! |!ped! [F,=A,E]2 [F,,F,] z!ped-up! | [B,,,B,,] z [B,,B,] z | z4 | %116
 [E,G,E]2 [_D,E,E]2 | [C,E,E]2 [=B,,D,D]2 | [C,E,C]2 !arpeggio![A,,C,C]2 | %119
 !arpeggio![G,,D,=B,]2 z2 | G,,2 D,,2 | E,,2 (3:2:2C,,2 B,,, | A,,,2 A,,2- | A,,2 G,,2 | %124
 [_D,,_D,]2 [G,,,G,,]2 | [A,,,A,,]4 |!ped! G,,,/=B,,,/E,,/D,,/ C,,/E,,/G,,/E,,/!ped-up! | G,,,4 | %128
!ped! =B,,,/E,,/F,,/G,,/ F,,/A,,/C,/=B,,/!ped-up! | G,,,4 | %130
!ped! =B,,,/E,,/F,,/G,,/ F,,/A,,/C,/=B,,/!ped-up! | %131
!ped! =B,,,/E,,/F,,/G,,/ F,,/A,,/C,/=B,,/!ped-up! |"_cresc." =B,,,/E,,/F,,/G,,/ F,,/A,,/=B,,/C,/ | %133
 =B,,/E,/F,/G,/ F,/A,/=B,/C/ | =B,/E/F/G/[K:treble] F/A/=B/c/ | =B/e/f/g/ f/a/=b/c'/ |1 %136
 =b/d'/f'/g'/ f'/d'/b/c'/ |!ff! =b/a/f/g/ f/d/=B/c/ | =B/A/F/G/ F/D/=B,/C/ | %139
 =B,/A,/^F,/G,/ A,/=A,/_B,/=B,/ :|2[K:treble] =b/g'/f'/d'/ b/c'/b/a/ | f/g/f/d/ =B/c/B/A/ | %142
 F/G/F/D/[K:bass] =B,/C/B,/A,/ | F,/G,/F,/D,/!ped! =B,,/G,/F,/D,/!ped-up! |] %144
 =B,,/G,/F,/D,/ B,,/G,/F,/D,/ | =B,,/G,/F,/D,/ B,,/G,/F,/D,/ | %146
!ped! =B,,/G,/^F,/D,/ B,,/G,/F,/D,/!ped-up! |!ped! =B,,/G,/^F,/D,/ B,,/G,/F,/D,/!ped-up! | %148
!ped! =B,,/=A,/G,/=E,/ B,,/A,/G,/E,/!ped-up! |!ped! =B,,/=B,/=A,/^F,/ B,,/B,/A,/F,/!ped-up! | %150
!ped! =B,,/=E/=B,/=E,/ B,,/D/B,/^F,/!ped-up! |!ped! =B,,/C/G,/=E,/ B,,/=B,/G,/D,/!ped-up! | %152
!ped! C,/=A,/G,/=E,/ =A,,/A,/G,/_E,/!ped-up! |!ped! D,/=A,/G,/D,/ D,,/A,/^F,/D,/!ped-up! | %154
!ped! G,,/=B,/G,/D,/ G,,/B,/G,/D,/!ped-up! |!ped! G,,/=B,/G,/D,/ G,,/B,/G,/D,/!ped-up! | %156
!ped! G,,/C/A,/E,/ G,,/C/A,/E,/!ped-up! |!ped! G,,/D/G,/F,/ G,,/D/G,/F,/!ped-up! | %158
!mf!!ped! G,,/C/G,/E,/ G,,/B,/G,/D,/!ped-up! |!ped! G,,/A,/E,/C,/ G,,/G,/E,/B,,/!ped-up! | %160
!ped! A,,/F,/E,/C,/ F,,/_C/F,/E,/!ped-up! |!pp!!ped! B,,/B,/A,/E,/ B,,/D/B,/F,/!ped-up! | %162
!mp!!ped! !arpeggio![E,_G,B,E]4-!ped-up! |!<(! E_G DE!<)! |!mf!!ped! _F_G!>(! A2-!ped-up!!>)! | %165
!mp! A2 [B,_G]2 |!ped! !arpeggio![E,=A,CF]4-!ped-up! | FF_GF |!ped! _D,2 E,2!ped-up! | F,2 F,,2 | %170
!ped! B,,_D,=A,,B,,!ped-up! |!ped! F,,B,,C,_D,!ped-up! | %172
!ped! E,F, [_G,B,]/B,,/[G,B,]/B,,/!ped-up! | %173
!ped! [_G,B,]/B,,/[G,B,]/B,,/ [F,B,]/B,,/[F,B,]/B,,/!ped-up! | %174
!ped! [=E,G,]/B,,/[E,G,]/!>!B,,/ !>!=B,,/[E,G,]/!>!C,/[E,G,]/!ped-up! | %175
!ped! _D,C,=B,,_B,,!ped-up! |!ped! A,,/F,/C,/A,/ G,,/[C,B,]/F,,/[C,A,]/!ped-up! | %177
!ped! B,,/G,/F,/_D/ C,/B,/G,/C/!ped-up! |!ped! A,/F/C/A/ G,/[CB]/F,/[CA]/!ped-up! | %179
!ped! B,/G/F/_d/ C/B/G/c/!ped-up! |!ped! ED^C=C!ped-up! | %181
!ped! =B,/[c^d]/B,/[=B=d]/ B,/[=Ac]/B,/[GB]/!ped-up! | %182
!ped! =B,/[^F=A]/B,/[=F_A]/ B,/[FA]/B,/[FA]/!ped-up! | %183
!ped! =B,/[FA]/[K:bass]C,/[A,F]/ C,/[G,=E]/C,/[G,E]/!ped-up! |!ped! E,D,^C,=C,!ped-up! | %185
!ped! =B,,/[C^D]/B,,/[=B,=D]/ B,,/[=A,C]/B,,/[G,B,]/!ped-up! | %186
!ped! =B,,/[^F,=A,]/B,,/[=F,_A,]/ B,,/[F,A,]/B,,/[F,A,]/!ped-up! | %187
 C,/[F,A,]/C,/[A,=B,]/ C,/[G,_B,]/C,/[C=E]/ |!pp! ([F,,F,]/A,/C/_D/ C/A,/F,/G,/) | %189
 (A,/F,/B,,/C,/ _D,/C,/B,,/D,/) | ([F,,F,]/A,/C/_D/ C/A,/F,/G,/) | %191
 (A,/F,/A,,/B,,/ C,/A,,/F,,/G,,/) | ([E,,A,,]/C/E/F/ E/C/A,/B,/) | (C/A,/C,/_D,/ E,/B,,/E,,/B,,/) | %194
!ped! [E,C]3 [_D,B,]/[C,A,]/!ped-up! |!ped! [C,A,]2 [D,=B,]2!ped-up! | %196
!ped! [E,C]3 [_D,B,]/[C,A,]/!ped-up! |!ped! [C,A,]4!ped-up! |!ped! [F,_D]3 [E,C]/[D,=B,]/!ped-up! | %199
!ped! [D,=B,]4!ped-up! |!ped! [D,=B,]3 [=E,^C]/[^F,D]/!ped-up! |!ped! [^F,D]2 [=E,^C]2!ped-up! | %202
!ped! [D,=B,]3 [=E,^C]/[^F,D]/!ped-up! |!ped! [^F,D] [F,D][^C,^A,][D,=B,]!ped-up! | %204
!ped! [=E,^C][^F,D] [G,=E]2-!ped-up! |!ped! [G,E]2 [F,D][=E,^C]!ped-up! | %206
!ped! [=E,^C][G,=E] [^F,D]2-!ped-up! |!ped! [F,D] [=A,F][=E,^C][=F,D]!ped-up! | %208
!ped! [G,=E][=A,F] [B,G]2-!ped-up! |!ped! [B,G]2 [=A,F][G,=E]!ped-up! | %210
!ped! =A, !>!A,!>!=E,!>!F,!ped-up! | G,=A,B,C |!ped! _D/C/=E/D/ B,/G,/=E,/_D,/!ped-up! | %213
!ped! B,,/G,,/=E,,/_D,,/ C,,/C,/=E,/C,/!ped-up! |!ped! =A, !>!A,!>!=E,!>!F,!ped-up! | G,=A,B,C | %216
!ped! [=E,_D]/C/E/D/ B,/G,/_F,/_D,/!ped-up! |!ped! B,,/G,,/E,,/C,,/ E,/G,/E,/G,/!ped-up! | %218
!ped! x !>!C!>!G,!>!A,!ped-up! | B,C_DE |!ped! =E/A,/F/A,/ _G/F/A/G/!ped-up! | %221
!ped! E/C/A,/E,/ C,/A,,/E,,/A,,,/!ped-up! |!ped! G,,,/G,,/D,/G,,/ D,/G,,/E,/F,/!ped-up! | %223
!ped! !>![F,D] z z2!ped-up! |!ped! !>![F,D] z z !>![E,C]/!>![D,=B,]/!ped-up! | %225
!ped! !>![D,=B,] z z2!ped-up! |!ped! !>![F,D] z z x/ x/!ped-up! |!ped! !>![D,=B,] z z2!ped-up! | %228
!ped! [D,=B,] z z2!ped-up! |!ped! [D,=B,] z z2!ped-up! |!ped! [D,=B,] z z2!ped-up! | %231
!ped! [D,=B,] z z2!ped-up! |!f!!ped! (!>![C,,,C,,]/ E/G/A/ G/E/C/D/)!ped-up! | %233
 (E/C/F,/G,/ A,/G,/F,/A,/) |!ped! (!>![C,,C,]/ E/G/A/ G/E/C/D/)!ped-up! | %235
 (E/C/F,/G,/ A,/G,/F,/E,/) |!ped! !>![D,A,B,F]3 !>![C,F,E]/!>![B,,F,D]/!ped-up! | %237
!ped! !>![B,,F,D]3 !>![E,=A,C_G]!ped-up! |!ped! !>![D,B,F]3 !>![C,F,E]/!>![B,,F,D]/!ped-up! | %239
!ped! !>![B,,F,D] z3!ped-up! |!ped! B,,,/(D,,/F,,/G,,/) (F,,/D,,/)F,,,/=A,,,/!ped-up! | B,,,4 | %242
!p!!ped! B,,,/E,,/B,,/C,/ (B,,/E,,/)G,,,/=A,,,/!ped-up! | B,,,4 | %244
!ped! (G,,/B,,/^C,/E,/ C,/B,,/=E,,/F,,/)!ped-up! | G,,3 A,, | %246
!ped! (=A,,/D,/F,/G,/ F,/^C,/F,,/G,,/)!ped-up! | =A,,2- [=A,,,A,,]2 | %248
!ped! (=A,,/C,/E,/F,/ E,/C,/G,,/_A,,/)!ped-up! | =A,,2"_cresc." [=A,,,A,,]2 | %250
!ped! ([=A,,,=A,,]/ F,/=A,/B,/ A,/F,/D,/=E,/)!ped-up! | F,/D,/=A,,/C,/ A,,/F,,/D,,/F,,/ | %252
!ped! ([=A,,,=A,,]/ F,/=A,/B,/ A,/F,/D,/=E,/)!ped-up! | B,/G,/=E,/^C,/ B,,/G,,/=E,,/^C,,/ | %254
!mf! [^C,,,^C,,]!pp!!ped-up!!ped! [=A,^C=EG][A,CEG][A,CEG] |[=A,^C=EG][A,CEG][A,CEG][A,CEG] | %256
!ped! B,/^C/=E/^F/ E/C/B,/=B,/!ped-up! |[K:bass] ^C/B,/=E,/^F,/ G,/E,/=A,,/B,,/ | %258
x[G,=B,][G,B,][G,B,] | [G,=B,][G,B,][^F,B,][F,B,] | %260
!ped! [=E,,=E,]/G,/=B,/C/ B,/G,/E,/^F,/!ped-up! | G,/=E,/G,,/=A,,/ =B,,/G,,/=E,,/^F,,/ | %262
 G,,=A,, =B,,2 | =B,,_B,, =A,,D, | [G,,,G,,] G,,[G,,G,][^F,,^F,] | %265
 [=E,,=E,][D,,D,][C,,C,][=B,,,=B,,] | [=A,,,=A,,]A,,[A,,=A,][G,,G,] | %267
 [^F,,^F,][=E,,=E,][D,,D,][C,,C,] | [=B,,,=B,,] [B,,=B,][^F,,^F,][G,,G,] | !>!=A,!>!=B, !>!C2- | %270
 C!>!C!>!=B,!>!_B, | !>!=B,!>!C !>!D2- | D!>!C!>!D!>!E | !>!=E!>!E !>!F2 | C !>!C!>!D!>!E | %275
 !>![G,CG] [C=E-]2 [^CE]- | [CE] D3 | [C,G,C] [C,=E,-]2 [^C,E,]- | [C,E,] D,3 | C,,2 G,,2 | %280
 G,,,2 G,,2 |!ped! C2 D2!ped-up! | [G,C=E]4 | =B,,2 =B,,,2 | =B,,2 =B,,,2 | %285
!ped! [G,=B,=E]2 [F,D]2!ped-up! | [=E,G,C]4 | [G,,D,]2 [G,,D,]2 | %288
!mp!!ped! [^F,=A,D]2 [F,A,^C][F,A,D]!ped-up! | [B,,F,]2 [B,,F,]2 | %290
!mf!!ped! [=A,CF]2 [A,C=E][A,CF]!ped-up! | [F,=A,]2 [=E,G,]2 | %292
!ped! D,,,/^F,,,/G,,,/=B,,,/ D,,/^F,,/G,,/=B,,/!ped-up! | D,2 D,,2 | G,, z G,,,2- | G,,,4 | %296
 [C,,C,]2 C2 | [G,,,G,,]2 [F,G,=B,]2 | [C,=E,G,C]2 !arpeggio![G,,D,=B,]2 | [G,C]2 [G,^A,=E]2 | %300
 [=B,,G,=B,]2 [G,B,=E]2 | [=B,,G,=B,]2 !arpeggio![B,,B,^D]2 | [=E,G,=E]2 !arpeggio![G,,F,=B,]2 | %303
 [C,=E,C]2 [G,C=E]2 | =B,2 _B,2 | ^F,2 =F,2 |!ped! D2 ^C2!ped-up! | [F,=A,C]2 F,,2 | %308
!ped! [F,CF]2!ped-up! [=E,^A,^CG]2 | [D,G,=B,D]2 [D,,D,]2 |!ped! [D,^F,D]2 [D,,D,]2!ped-up! | %311
 [G,,,G,,] z [G,,G,] z | z4 | [C,=E,C]2 [B,,C,C]2 | [=A,,C,C]2 [^G,,=B,,=B,]2 | %315
 [=A,,C,=A,]2 !arpeggio![F,,=B,,A,]2 | !arpeggio![=E,,=B,,^G,]4 | =E,,2 =B,,,2 | %318
 C,,2 (3:2:2=A,,,2 G,,, | F,,,2 F,,2- | F,,2 ^F,,2 | G,,2 [B,,,B,,]2 | [=A,,,=A,,]2 [_A,,,_A,,]2 | %323
!ped! G,,,/C,,/G,,/A,,/ G,,/C,/G,/A,/!ped-up! | [G,,G,]2 z2 | %325
!ped! G,,,/C,,/G,,/A,,/ G,,/C,/G,/A,/!ped-up! | [G,,G,]2 z2 | %327
!ped! G,,,/^C,,/G,,/=A,,/ G,,/^C,/G,/=A,/!ped-up! | [B,,B,]2 z2 | %329
!ped! G,,,/^C,,/G,,/=A,,/ G,,/^C,/G,/=A,/!ped-up! | [G,,G,]2 z2 | %331
!ped! G,,,/D,,/G,,/A,,/ G,,/D,/G,/A,/!ped-up! | [G,,G,]2 z2 | %333
!ped! G,,,/D,,/G,,/A,,/ G,,/D,/G,/A,/!ped-up! | [G,,G,]2 z2 | %335
!f!!ped! (!>![G,,,G,,]/E/G/A/ G/E/C/D/)!ped-up! | (E/C/F,/G,/ A,/F,/C,/A,,/) | %337
!ped! (!>![G,,,G,,]/E/G/A/ G/E/C/D/)!ped-up! | (E/C/F,/G,/ A,/F,/C,/A,,/) | %339
!ped! (!>![G,,,G,,]/=E/G/=A/ G/E/G,/=A,/)!ped-up! | (B,/G,/=E,/F,/ G,/E,/^C,/B,,/) | %341
!ped! (!>![G,,,G,,]/D/F/G/ F/D/F,/G,/)!ped-up! | (A,/F,/D,/E,/ F,/D,/=B,,/F,,/) | %343
!ped! =B,,,/D,,/F,,/G,,/ F,,/A,,/=B,,/C,/!ped-up! | =B,,/D,/F,/G,/ F,/A,/=B,/C/ | %345
[K:treble]!ped! =B,/D/F/G/ F/A/=B/c/!ped-up! | =B/d/f/g/ B/d/f/g/ | %347
[K:bass]!f!!ped! (!>![C,,,C,,]/E/G/A/ G/E/C/D/)!ped-up! | (E/C/F,/G,/ A,/F,/C,/A,,/) | %349
!ped! (!>![C,,,C,,]/ =E/G/A/ G/E/B,/C/)!ped-up! | (_D/B,/G,/=E,/ _D,/C,/A,,/=E,,/) | %351
!ped! (!>![C,,,C,,]/ C/E/F/ E/C/=A,/_G,/)!ped-up! | (E,/C,/=A,,/_G,,/ E,,/C,,/=A,,,/^F,,,/) | %353
!ped! (!>![C,,,C,,]/ =B,/D/E/ D/B,/F,/G,/)!ped-up! | (A,/F,/D,/=B,,/ A,,/G,,/D,,/=A,,,/) | %355
!pp!!ped! C,,/E,,/A,,/G,,/ =B,,,/D,,/A,,/[C,,G,,]/!ped-up! | %356
!p!!ped! D,,/F,,/A,,/G,,/ =E,,/G,,/_D,/C,/!ped-up! | %357
!mp!!ped! F,,/A,,/_D,/C,/ =E,,/G,,/D,/[F,,C,]/!ped-up! | %358
!mf!!ped! (C,/E/D/C/ =B,/A,/G,/G,,/)!ped-up! |!pp!!ped! C,/E,/A,/G,/ =B,,/D,/A,/[C,G,]/!ped-up! | %360
!p!!ped! D,/F,/A,/G,/ =E,/G,/_D/C/!ped-up! |!mp!!ped! F,/A,/_D/C/ =E,/G,/D/[F,C]/!ped-up! | %362
!mf!!ped! ([^F,C]/[K:treble]e/d/c/ [G,=B]/A/G/G,/)!ped-up! | %363
[K:bass]!ped! !>![G,B,_D=E]3 !>![F,B,DF]/!>![=E,B,DG]/!ped-up! | !>![=E,B,_DG]4 | %365
!ped! !>![CE_G=A]3 !>![B,EGB]/!>![=A,EGc]/!ped-up! | !>![E^Fc]4 | %367
[K:bass]!f!!ped! (!>![C,,,C,,]/ E/G/A/ G/E/C/D/)!ped-up! | %368
 (E/C/!>!_G,,/!>!_G,/ !>!F,,/!>!F,/!>!=E,,/!>!=E,/) | %369
!ped! [^D,,^D,]/D,/C/=A,/ ^F/A,/C/D,/!ped-up! | %370
 ^D,/^D,,/!>!=D,,/!>!=D,/ !>!^C,,/!>!^C,/!>!=C,,/!>!=C,/ | %371
!ped! [=B,,,=B,,]/=A,/^F,/^D/ ^A,,/^A,/F,/D/!ped-up! | %372
!ped! =A,,/^F,/D,/C/ G,,/=F,/D,/=B,/!ped-up! | %373
!ped! !>![C,,,C,,]/E,,/G,,/A,,/ G,,/C,/E,/F,/!ped-up! |!ped! E,/G,/C/D/ C/E/G/A/!ped-up! | %375
!ped! G/c/e/f/ e/c/G/E/!ped-up! |[K:bass]!ped! C/G,/E,/C,/ G,,/E,,/C,,/G,,,/!ped-up! | %377
 !>!C,,,2 z2 | !>![C,G,E]2 z2 | [C,,,C,,]4 |] %380
V:3
 x4 | x4 | x4 | x4 | x4 | x4 | x4 | x4 | x4 | x4 | x4 | x4 | z4 | z2 [FA] z | z4 | z2 [FA] z | x4 | %17
 x2!8va(! x2 | x2!8va)! x2 | x4 | x4 | x4 | x4 | x4 | x4 | x4 | x4 | x4 | x4 | x4 | x2!8va(! x2 | %31
 x2!8va)! x2 | x4 | x4 | x4 | x4 | GGGG | GGGG | [^CG][CG][CG][CG] | [^CG][D^G][DG][DG] | %40
 [D^F][DF][F=B][FB] | [^F=B][FB][=EA][EA] | [E=A][EA][EA][EA] | [E=A][Gc][DG][DG] | %44
 [Fc][Ec][Fc][Fc] | [Gc][Gc]E[DG] | [=EBc][_EBc][GBc][GBc] | [GB^c][Gc=e][Gce][Gce] | %48
!8va(! x4!8va)! | x4 | z [B=e][Be][GBe] | [GB=e] z z x | z GGG | GGcc | z [GB][GB][GB] | %55
 [GB] z z x | z B,B,B, | B,=E _E2 | D x3 | x4 | x4 | x4 | x4 | [EB][FB][GB]B | B[GB][FB][=EB] | %65
 [FB][GB][A-B]B | [AB][GB][AB]=A | [Be][=Be][c-e]e | x4 | x B B2 | cA-AA | G B, B,2 | CA,-A,A, | %73
 x4 | x4 | x4 | E2 ^C2 | x4 | x4 | x4 | x4 | x4 | x2 [_A,C]2 | [A,_D]2 [A,D]2 | [CE]2 [CE]2 | %85
 [EA]2 [=EB]2 | x4 | x4 | x4 | x4 | x4 | x4 | x4 | E2 ^C2 | x4 | x4 | x4 | x2 z z | z z z z | %99
 !>![GBe]2 !>![GBe]2 | x2 !>![ABf]>!>![Fd] | !>![GBe]2 !>![Bdf]2 | !>![Beg]2 z z | %103
 !>![Bdg]2 !>![Bdg]2 | x2 !>![cd=a]>!>![=A^f] | !>![Bdg]2 !>![Bdf]2 | !>![GBe]4 | %107
 !>![Bdf]2 !>![Bdf]2 | !>![=Acf]2 x2 | !>![_dfa]2 !>![d_fa]2 | !>![cea]2 x2 | %111
 !>![cec']2 !>![^c=e^c']2 | !>![dfbd']2 x2 | (3:2:2!>![=Af]2 !>![Ge] (3:2:2!>![Ec]2 !>![FAd] | x4 | %115
 x4 | !>![GBe]2 !>![GBe]2 | x2 (3:2:2!>!f2 !>!d | (3:2:2!>!e2 c (3:2:2!>!f2 d | x4 |[K:bass] x4 | %121
{/!>!A,} (3!>!G,!>!^F,G, (3:2:2!>!A,2 !>!B, | !>!C2 !>!_C2 | !>!B,4 | !>!E2 !>!E2 | %125
{/!>!F} (3!>!E!>!DE (3:2:2!>!F2 !>!^F | [=B,D]G,[CE]G, |{C} (3[=B,D][=A,^C][B,D] (3=CG,C | %128
 [DF]G,[DF]G, |{[CE]} (3[=B,D][=A,^C][B,D]"_cresc." (3=CG,C | [DF]G,[DF]G, | [DF]G,[DF]G, | x4 | %133
 x4 | x4 | x2!8va(! x2 |1 x4 | x4!8va)! | x4 | x4 :|2!8va(! x4!8va)! | x4 | x4 | x4 |] x4 | x4 | %146
 x4 | x3 [D^F] | x3 [=EG] | x3 [^F=A] | x2 [^F=B]2 | [=EG]2 [DG]2 | [=EG]2 [_EG]2 | %153
 [CDG]2 [CD^F]2 | x4 | x4 | x4 | x4 | x2 [dg]2 | [ce]2 [Be]2 | [ce]2 [_ce]2 | [Be]2 [Bd]2 | %162
!8va(! x4!8va)! | x4 | x4 | x4 | x4 | x4 | x4 | x4 | x4 | x4 | x3 [_G_c] | x [_G_c] x [Gc] | %174
 x [=EG] x [EG] | x [=EG] x [EG] | x4 | x4 | x4 |!8va(! x4 | x4 | x4!8va)! | x4 | x4 | x4 | x4 | %186
 x4 | x4 | z4 | z2 [B,_D] z | z4 | z2 z2 | A4- | A2 G2 | x4 |!8va(! x4!8va)! | x4 | x4 | x4 | %199
 x2!8va(! x2 | x5/2!8va)! x3/2 | x4 | x4 | x4 | x4 | x4 | x4 | x4 | x4 |!8va(! x2!8va)! x2 | %210
 x3 !>!=A |!>!=E!>!FG=A | !>!B2- !>!B>!>!c | !>!_d2 !>!c>!>!B | x3 !>!=A |!>!=E!>!FG=A | %216
 !>!B2- !>!B>!>!c | !>!_d2 !>!e>!>!=B | x3 !>!c |!>!G!>!ABc | !>!c!>!c !>!c2- | x4 | x4 | x4 | x4 | %225
 x/!8va(! x3/2!8va)! x2 | x4 | x/!8va(! x3/2!8va)! x2 | x4 | x4 | x4 | x4 | x4 | x4 | x4 | x4 | %236
 x2!8va(! x2 | x2!8va)! x2 | x4 | x4 | x4 | x4 |[I:staff +1] B,B,B,B, | B,B,B,B, | %244
[I:staff -1] [=E,B,][E,B,][E,B,][E,B,] | [=E,B,][F,=B,][F,B,][F,B,] | [F,=A,][F,A,][A,D][A,D] | %247
 [=A,D][A,D][G,^C][G,C] | [^F,C][F,C][F,C][F,C] | [^F,C][K:treble] [G,^C][C=E][CEG] | %250
 [DF][DF][DF][DF] | [DF] [=Ad][=EA][FA] | [B^c][Bc][Bc][GBc]- | [GBc] x3 | x4 | x4 | %256
 z [G^c][Gc][=EGc] | [=EG^c] z z x | z =EEE | =EE=AA | z [=EG][EG][EG] | [=EG] z z x | G,G,G,G, | %263
 G,^C =C2 | =B, x3 | x4 | x4 | x4 | x4 | [CG][DG][=EG]G | G[=EG][DG][^CG] | [DG][=EG][F-G]G | %272
 [FG][=EG][FG]^F | [Gc][Ac][=A-c]c | x4 | x G G2 | =AF-FF | =E G, ^G,2 | =A,F,-F,F, | x4 | x4 | %281
 x4 | x4 | x4 | x4 | x4 | x4 | x4 | x4 | x4 | x4 | x4 | x4 | x4 | x4 | x4 | %296
[I:staff +1] !>![=E,G,C]2[I:staff -1] !>![=EGc]2 | x2 !>![FGd]>!>![D=B] | !>![=EGc]2 !>![G=Bd]2 | %299
 !>![Gc=e]2 z z | !>![G=B=e]2 !>![GBe]2 | x2 !>![=A=B^f]>!>![^F_e] | !>![G=B=e]2 !>![GBd]2 | %303
 !>![=EGc]2 z2 | !>![G=Bd]2 !>![G_Bd]2 | !>![^F=Ad]2 x2 | !>![Bdf]2 !>![B_df]2 | !>![=Acf]2 x2 | %308
 !>![=Ac=a]2 !>![B^cb]2 | !>![=Bdg=b]2 x2 | (3:2:2!>![^Fd]2 !>![=Ec] (3:2:2!>![C=A]2 !>![DF=B] | %311
 x4 | x4 | !>![=EGc]2 !>![EGc]2 | x2 (3:2:2!>!d2 !>!=B | (3:2:2!>!c2 =A (3:2:2!>!d2 =B | x4 | %317
[K:bass] x4 |{/!>!F,} (3!>!=E,!>!^D,E, (3:2:2!>!F,2 !>!G, | !>!=A,2 !>!=B,2 | !>!C4 | !>!C2 !>!C2 | %322
{/!>!D} (3!>!C!>!=B,C (3:2:2!>!D2 !>!C |[K:treble] (3CG,C (3[CE]G,C | (3[CE]G,[CE] (3[CE]G,[CE] | %325
 (3CG,C (3[CE]G,C | (3[CE]G,[CE]!p! (3[CE]G,[CE] |(3xG,[^C=E] (3[CE]G,[CE] | %328
(3xG[^C=E] (3[CE]G[CE] |(3xG,[^C=E] (3[CE]G,[CE] |(3xG[^C=E] (3[CE]G[CE] |(3xF[A=B] (3[AB]F[AB] | %332
(3xd[A=B] (3[AB]d[AB] |(3xF[A=B] (3[AB]F[AB] |(3xd[A=B] (3[AB]d[AB] | x4 | x4 | x4 | x4 | x4 | x4 | %341
 x4 | x4 |!8va(! x4 | x4 | x4 | x4 | x4 | x4 | x4 | x4!8va)! | x4 | x4 | x4 | x4 | x4 | x4 | x4 | %358
 x4 | x4 | x4 |!8va(! x4 | x4 | x3!8va)! x | x4 |!8va(! x4 | x2!8va)! x2 | x4 | x4 |!8va(! x4 | %370
 x4 | x2!8va)! x2 | x4 | x4 | x4 | x2!8va(! x2 | x4 | x4!8va)! | x4 | x4 |] %380
V:4
 x4 | x4 | x4 | x4 | x4 | x4 | x4 | x4 | x4 | x4 | x4 | x4 | x4 | x4 | x4 | x4 | x4 | x4 | x4 | %19
 x4 | x4 | x4 | x4 | x4 | x4 | x4 | x4 | x4 | x4 | x4 | x4 | x4 | x4 | x4 | x4 | x4 | x4 | x4 | %38
 x4 | x4 | x4 | x4 | x4 | x4 | x4 | x4 | x4 | x4 | x4 | x4 | x4 | x4 | D,4- | D,4 | x4 | x4 | %56
 z F,,F,,F,, | F,,4 | x4 | x4 | x4 | x4 | x4 | [C,B,][D,B,][E,-B,]B, | [E,B,][E,B,][D,B,][^C,B,] | %65
 [D,B,][E,B,][F,-B,]B, | [F,B,][E,B,][F,B,][^F,E] | [G,E][G,E][A,E]E | x[K:treble] [C=A]2 [_CA] | %69
 x B, B,2 | C[K:bass]F,_CB, | x B,, B,,2 | C,F,,_C,B,, | x4 | x4 | E,,2 B,,,2 | E,,4 | D,4 | D,4 | %79
 x4 | E,2 E,,2 | x4 | x4 | x4 | x4 | x4 | x4 | x4 | x4 | x4 | x4 | x4 | E,,2 B,,,2 | E,,4 | D,4 | %95
 D,4 | x4 | E,2 z2 | x4 | x4 | x4 | x4 | [E,G,]4 | x4 | x4 | x4 | x4 | x4 | x4 | x4 | x4 | x4 | %112
 x4 | x4 | x4 | x4 | x4 | x4 | x4 | x4 | x4 | x4 | x4 | x4 | x4 | x4 | x4 | x4 | x4 | x4 | x4 | %131
 x4 | x4 | x4 | x2[K:treble] x2 | x4 |1 x4 | x4 | x4 | x4 :|2[K:treble] x4 | x4 | x2[K:bass] x2 | %143
 x4 |] x4 | x4 | x4 | x4 | x4 | x4 | x4 | x4 | x4 | x4 | x4 | x4 | x4 | x4 | x4 | x4 | x4 | x4 | %162
 x4 | [E,G,B,]4 | [E,A,_C]4- | [E,-A,C]2 E,2 | x4 | [E,A,C]4 | _D,[F,B,]E,[_G,B,] | F,B,F,,[C,E,] | %170
 B,,/B,,,/_D,/B,,,/ =A,,/B,,,/B,,/B,,,/ | F,,/B,,,/B,,/B,,,/ C,/B,,,/_D,/B,,,/ | %172
 E,/B,,/F,/B,,/ x2 | x4 | x4 | _D,/[=E,G,]/C,/[E,G,]/ =B,,/[E,G,]/_B,,/[E,G,]/ | x4 | x4 | x4 | %179
 x4 | E/[^F=A]/D/[FA]/ ^C/[FA]/=C/[FA]/ | x4 | x4 | x[K:bass] x3 | %184
 E,/[^F,=A,]/D,/[F,A,]/ ^C,/[F,A,]/=C,/[F,A,]/ | x4 | x4 | x4 | x4 | x4 | x4 | x4 | x4 | x4 | %194
 A,,2 A,,2 | A,,2 A,,2 | A,,2 A,,2 | A,,2 A,,2 | A,,2 A,,2 | A,,2 A,,2 | ^F,,2 F,,2 | F,,2 ^F,,2 | %202
 =B,,2 B,,2- | B,,4 | =B,,2 _B,,2 | =A,,4 | D,4 | D,4- | D,2 _D,2 | C,2 C,2 | %210
 [F,,C,]/F,,/=A,/F,,/ =E,/F,,/F,/F,,/ | G,/F,,/=A,/F,,/ B,/F,,/C/F,,/ | =E,2 z2 | x4 | %214
 =A,/[F,,C,]/A,/F,,/ =E,/F,,/F,/F,,/ | G,/F,,/=A,/F,,/ B,/F,,/C/F,,/ | x4 | x4 | %218
 [A,,A,]/E,/C/A,,/ G,/A,,/A,/A,,/ | B,/A,,/C/A,,/ _D/A,,/E/A,,/ | x4 | x4 | %222
 x2 !>![D,=B,]!>![E,C]/!>![F,D]/ | F,/G,,/F,/G,,/ F,/G,,/F,/G,,/ | F,/G,,/F,/G,,/ F,/G,,/E,/D,/ | %225
 D,/G,,/F,/G,,/ F,/G,,/F,/G,,/ | F,/G,,/F,/G,,/ F,/G,,/!>![E,C]/!>![D,=B,]/ | %227
 D,/G,,/F,/G,,/ F,/G,,/F,/G,,/ | D,/G,,/F,/G,,/ F,/G,,/F,/G,,/ | D,/G,,/F,/G,,/ F,/G,,/F,/G,,/ | %230
 D,/G,,/F,/G,,/ F,/G,,/F,/G,,/ | D,/G,,/F,/G,,/ F,/G,,/F,/G,,/ | x4 | x4 | x4 | x4 | x4 | x4 | x4 | %239
 x4 | x4 | x4 | x4 | x4 | x4 | x4 | x4 | x4 | x4 | x4 | x4 | x4 | x4 | x4 | x4 | x4 | x4 | %257
[K:bass] x4 | =B,,4- | B,,4 | x4 | x4 | D,,D,,D,,D,, | D,,4 | x4 | x4 | x4 | x4 | x4 | %269
 [=A,,G,][=B,,G,][C,-G,]G, | [C,G,][C,G,][=B,,G,][_B,,G,] | [=B,,G,][C,G,][D,-G,]G, | %272
 [D,G,][C,G,][D,G,][E,C] | [=E,C][E,C][F,C]C | x [=A,^F]2 [_A,F] | x G, G,2 | =A,D,_A,G, | %277
 x G,, ^G,,2 | =A,,D,,_A,,G,, | x4 | x4 | [C,=E,G,]2 [G,=B,]2 | C,2 C,2 | x4 | x4 | =E,2 G,,2 | %286
 C,2 C,2 | x4 | D,4 | x4 | F,4 | x4 | x4 | x4 | x4 | x4 | x2 [=E,G,]2 | x4 | x4 | C,4 | x4 | x4 | %302
 x4 | x4 |{/G,,} [D,G,]4 | [D,=A,]4 |{/B,,} [F,B,]4 | x4 | x4 | x4 | x4 | x4 | x4 | x4 | x4 | x4 | %316
 x4 | x4 | x4 | x4 | x4 | x4 | x4 | x4 | x4 | x4 | x4 | x4 | x4 | x4 | x4 | x4 | x4 | x4 | x4 | %335
 x4 | x4 | x4 | x4 | x4 | x4 | x4 | x4 | x4 | x4 |[K:treble] x4 | x4 |[K:bass] x4 | x4 | x4 | x4 | %351
 x4 | x4 | x4 | x4 | x4 | x4 | x4 | ^F,, z G,, z | x4 | x4 | x4 | x/[K:treble] x7/2 |[K:bass] x4 | %364
 x4 | x4 | =A,2 _A,2 |[K:bass] x4 | x4 | x4 | x4 | x4 | x4 | x4 | x4 | x4 |[K:bass] x4 | x4 | x4 | %379
 x4 |] %380
V:5
 x4 | x4 | x4 | x4 | x4 | x4 | x4 | x4 | x4 | x4 | x4 | x4 | x4 | x4 | x4 | x4 | x4 | x2!8va(! x2 | %18
 x2!8va)! x2 | x4 | x4 | x4 | x4 | x4 | x4 | x4 | x4 | x4 | x4 | x4 | x2!8va(! x2 | x2!8va)! x2 | %32
 x4 | x4 | x4 | x4 | x4 | x4 | x4 | x4 | x4 | x4 | x4 | x4 | x4 | x4 | x4 | x4 |!8va(! x4!8va)! | %49
 x4 | x4 | x4 | x4 | x4 | x4 | x4 | x4 | x4 | x4 | x4 | x4 | x4 | x4 | x4 | x4 | x4 | x4 | x4 | %68
 x4 | x4 | x4 | x4 | x4 | x4 | x4 | x4 | x4 | x4 | x4 | x4 | x4 | x4 | x4 | x4 | x4 | x4 | x4 | %87
 x4 | x4 | x4 | x4 | x4 | x4 | x4 | x4 | x4 | x4 | x4 | x4 | x4 | x4 | x4 | x4 | x4 | x4 | x4 | %106
 x4 | x4 | x4 | x4 | x4 | x4 | x4 | x4 | x4 | x4 | x4 | x4 | x4 | x4 |[K:bass] x4 | x4 | x4 | x4 | %124
 x4 | x4 | x4 | x2 (3:2:2!>!E2 !>!=E | x4 | x2 (3:2:2!>!E2 !>!=E | x4 | x4 | x4 | x4 | x4 | %135
 x2!8va(! x2 |1 x4 | x4!8va)! | x4 | x4 :|2!8va(! x4!8va)! | x4 | x4 | x4 |] x4 | x4 | x4 | x4 | %148
 x4 | x4 | x4 | x4 | x4 | x4 | x4 | x4 | x4 | x4 | x4 | x4 | x4 | x4 |!8va(! x4!8va)! | x4 | x4 | %165
 x4 | x4 | x4 | x4 | x4 | x4 | x4 | x4 | x4 | x4 | x4 | x4 | x4 | x4 |!8va(! x4 | x4 | x4!8va)! | %182
 x4 | x4 | x4 | x4 | x4 | x4 | x4 | x4 | x4 | x4 | x4 | x4 | x4 |!8va(! x4!8va)! | x4 | x4 | x4 | %199
 x2!8va(! x2 | x5/2!8va)! x3/2 | x4 | x4 | x4 | x4 | x4 | x4 | x4 | x4 |!8va(! x2!8va)! x2 | x4 | %211
 x4 | x4 | x4 | x4 | x4 | x4 | x4 | x4 | x4 | x4 | x4 | x4 | x4 | x4 | x/!8va(! x3/2!8va)! x2 | %226
 x4 | x/!8va(! x3/2!8va)! x2 | x4 | x4 | x4 | x4 | x4 | x4 | x4 | x4 | x2!8va(! x2 | x2!8va)! x2 | %238
 x4 | x4 | x4 | x4 | x4 | x4 | x4 | x4 | x4 | x4 | x4 | x[K:treble] x3 | x4 | x4 | x4 | x4 | x4 | %255
 x4 | x4 | x4 | x4 | x2 x2 | x4 | x4 | x4 | x4 | x4 | x4 | x4 | x4 | x4 | x4 | x4 | x4 | x4 | x4 | %274
 x4 | x4 | x4 | x4 | x4 | x4 | x4 | x4 | x4 | x4 | x4 | x4 | x4 | x4 | x4 | x4 | x4 | x4 | x4 | %293
 x4 | x4 | x4 | x4 | x4 | x4 | x4 | x4 | x4 | x4 | x4 | x4 | x4 | x4 | x4 | x4 | x4 | x4 | x4 | %312
 x4 | x4 | x4 | x4 | x4 |[K:bass] x4 | x4 | x4 | x4 | x4 | x4 |[K:treble] x4 | x4 | x4 | x4 | x4 | %328
 x4 | x4 | x4 | x4 | x4 | x4 | x4 | x4 | x4 | x4 | x4 | x4 | x4 | x4 | x4 |!8va(! x4 | x4 | x4 | %346
 x4 | x4 | x4 | x4 | x4!8va)! | x4 | x4 | x4 | x4 | x4 | x4 | x4 | x4 | x4 | x4 |!8va(! x4 | x4 | %363
 x3!8va)! x | x4 |!8va(! x4 | x2!8va)! x2 | x4 | x4 |!8va(! x4 | x4 | x2!8va)! x2 | x4 | x4 | x4 | %375
 x2!8va(! x2 | x4 | x4!8va)! | x4 | x4 |] %380

